src/section/s1/style_m.svg

<svg width="375" height="666" viewBox="0 0 375 666" fill="none" xmlns="http://www.w3.org/2000/svg">
<g opacity="0.4">
<g opacity="0.3">
<path d="M4.04891 0.62561H7.57757V122.723H-3.82654V109.86L4.04891 84.8412V0.62561Z" fill="white"/>
<path d="M-3.20825 408.142H6.07241L6.22854 657.101H0.99493V620.89H-2.78978V605.477H3.36192V424.882L-3.20825 408.142Z" fill="white"/>
<path d="M24.1403 53.9676L15.5841 81.1841V149.9H18.382V84.4488L24.1403 53.9676Z" fill="white"/>
<path d="M27.9001 517.997V658.066H38.1613V560.815L27.9001 517.997Z" fill="white"/>
<path d="M45.9369 559.23L68.1768 521.434L62.1125 658.066H45.9369V559.23Z" fill="white"/>
<path d="M42.9329 311.504L24.6838 267.375L21.5923 256.451H13.7981V273.716L15.9465 279.884H24.6838V373.525L42.9329 311.504Z" fill="white"/>
<path d="M60.8696 79.8185L46.1429 122.723V246.319L60.8696 197.16V79.8185Z" fill="white"/>
<path d="M27.5879 29.082V143.245L40.341 191.345V47.3126L27.5879 29.082Z" fill="white"/>
</g>
<g opacity="0.3">
<path d="M278.622 218.302H278.834H282.612V138.489L278.834 128.216V8.55197H276.785V151.525H274.518V172.965H271.283V218.302H278.622Z" fill="white"/>
<path d="M316.812 665.992H311.204V588.118L302.573 534.438H316.812V665.992Z" fill="white"/>
<path d="M285.523 665.992V624.241L278.834 602.04V473.068L286.603 408.056V405.545H274.518V466.774V473.068V665.992H285.523Z" fill="white"/>
<path d="M214.319 642.08H209.785V666H214.319V642.08Z" fill="white"/>
<path d="M185.403 622.123H178.714V665.992H185.403V622.123Z" fill="white"/>
<path d="M142.247 665.992H138.581V543.895H150.447V556.757L142.247 581.777V665.992Z" fill="white"/>
<path d="M242.479 154.35H236.165V239.444L242.479 225.883V154.35Z" fill="white"/>
<path d="M149.798 258.475H140.142L139.98 9.52509H145.432V45.7273H149.367V61.1406H142.965V241.736L149.798 258.475Z" fill="white"/>
<path d="M259.417 463.603L254.127 445.632V309.612H259.417V463.603Z" fill="white"/>
<path d="M121.344 612.658L130.243 585.434V516.718H127.333V582.177L121.344 612.658Z" fill="white"/>
<path d="M311.204 588.118L278.834 612.658L290.276 450.427L311.204 588.118Z" fill="white"/>
<path d="M212.052 600.219L221.17 561.961V493.512H212.052V600.219Z" fill="white"/>
<path d="M181.949 487.783L205.038 405.545V305.602L181.949 331.327V487.783Z" fill="white"/>
<path d="M212.914 88.3649C213.882 88.3649 236.165 65.6374 236.165 65.6374L212.914 27.2927V88.3649V88.3649Z" fill="white"/>
<path d="M166.304 196.893L202.396 166.067V82.5496L166.304 0.62561V196.893Z" fill="white"/>
<path d="M117.434 148.621V8.55197H106.754V105.811L117.434 148.621Z" fill="white"/>
<path d="M98.6604 107.396L75.5149 145.184L81.829 8.55197H98.6604V107.396Z" fill="white"/>
<path d="M101.789 355.114L120.775 399.251L123.992 410.175H132.105V392.902L129.869 386.741H120.775V293.092L101.789 355.114Z" fill="white"/>
<path d="M83.1218 586.799L98.4418 543.895V420.299L83.1218 469.458V586.799Z" fill="white"/>
<path d="M117.759 637.544V523.373L104.487 475.273V619.305L117.759 637.544Z" fill="white"/>
<path d="M274.518 473.068L259.417 516.239L274.518 405.545V473.068Z" fill="white"/>
</g>
<g opacity="0.3">
<path d="M377.936 0.62561H374.264V122.723H386.136V109.86L377.936 84.8412V0.62561Z" fill="white"/>
<path d="M357.033 53.9676L365.933 81.1841V149.9H363.016V84.4488L357.033 53.9676Z" fill="white"/>
<path d="M352.149 483.16V623.229H341.469V525.97L352.149 483.16Z" fill="white"/>
<path d="M322.777 326.485L299.631 288.69L305.945 425.321H322.777V326.485Z" fill="white"/>
<path d="M337.472 311.504L356.464 267.375L359.675 256.451H367.794V273.716L365.558 279.884H356.464V373.525L337.472 311.504Z" fill="white"/>
<path d="M318.811 79.8185L334.131 122.723V246.319L318.811 197.16V79.8185Z" fill="white"/>
<path d="M353.442 29.082V143.245L340.17 191.345V47.3126L353.442 29.082Z" fill="white"/>
</g>
</g>
</svg>

<?xml version="1.0" encoding="utf-8"?>
<!-- Generator: Adobe Illustrator 27.0.0, SVG Export Plug-In . SVG Version: 6.00 Build 0)  -->
<svg version="1.1" id="圖層_1" xmlns="http://www.w3.org/2000/svg" xmlns:xlink="http://www.w3.org/1999/xlink" x="0px" y="0px"
	 viewBox="0 0 375 666" style="enable-background:new 0 0 375 666;" xml:space="preserve">
<style type="text/css">
	.st0{opacity:0.4;clip-path:url(#SVGID_00000034788560613216652380000008651402348115308465_);}
	.st1{opacity:0.3;}
	.st2{fill:#FFFFFF;}
</style>
<g>
	<defs>
		<rect id="SVGID_1_" y="0.6" width="375" height="665.4"/>
	</defs>
	<clipPath id="SVGID_00000104677898902879749190000008788737630793469102_">
		<use xlink:href="#SVGID_1_"  style="overflow:visible;"/>
	</clipPath>
	<g style="opacity:0.4;clip-path:url(#SVGID_00000104677898902879749190000008788737630793469102_);">
		<g class="st1">
			<path class="st2" d="M4,0.6h3.5v122.1H-3.8v-12.9l7.9-25V0.6z"/>
			<path class="st2" d="M-3.2,408.1h9.3l0.2,249H1v-36.2h-3.8v-15.4h6.2V424.9L-3.2,408.1z"/>
			<path class="st2" d="M24.1,54l-8.6,27.2v68.7h2.8V84.4L24.1,54z"/>
			<path class="st2" d="M27.9,518v140.1h10.3v-97.3L27.9,518z"/>
			<path class="st2" d="M45.9,559.2l22.2-37.8l-6.1,136.6H45.9V559.2z"/>
			<path class="st2" d="M42.9,311.5l-18.2-44.1l-3.1-10.9h-7.8v17.3l2.1,6.2h8.7v93.6L42.9,311.5z"/>
			<path class="st2" d="M60.9,79.8l-14.7,42.9v123.6l14.7-49.2V79.8z"/>
			<path class="st2" d="M27.6,29.1v114.2l12.8,48.1v-144L27.6,29.1z"/>
		</g>
		<g class="st1">
			<path class="st2" d="M278.6,218.3h0.2h3.8v-79.8l-3.8-10.3V8.6h-2v143h-2.3V173h-3.2v45.3H278.6z"/>
			<path class="st2" d="M316.8,666h-5.6v-77.9l-8.6-53.7h14.2V666z"/>
			<path class="st2" d="M285.5,666v-41.8l-6.7-22.2v-129l7.8-65v-2.5h-12.1v61.2v6.3V666H285.5z"/>
			<path class="st2" d="M214.3,642.1h-4.5V666h4.5V642.1z"/>
			<path class="st2" d="M185.4,622.1h-6.7V666h6.7V622.1z"/>
			<path class="st2" d="M142.2,666h-3.7V543.9h11.9v12.9l-8.2,25V666z"/>
			<path class="st2" d="M242.5,154.4h-6.3v85.1l6.3-13.6V154.4z"/>
			<path class="st2" d="M149.8,258.5h-9.7L140,9.5h5.5v36.2h3.9v15.4H143v180.6L149.8,258.5z"/>
			<path class="st2" d="M259.4,463.6l-5.3-18v-136h5.3V463.6z"/>
			<path class="st2" d="M121.3,612.7l8.9-27.2v-68.7h-2.9v65.5L121.3,612.7z"/>
			<path class="st2" d="M311.2,588.1l-32.4,24.5l11.4-162.2L311.2,588.1z"/>
			<path class="st2" d="M212.1,600.2l9.1-38.3v-68.4h-9.1V600.2z"/>
			<path class="st2" d="M181.9,487.8l23.1-82.2v-99.9l-23.1,25.7V487.8z"/>
			<path class="st2" d="M212.9,88.4c1,0,23.3-22.7,23.3-22.7l-23.3-38.3V88.4L212.9,88.4z"/>
			<path class="st2" d="M166.3,196.9l36.1-30.8V82.5L166.3,0.6V196.9z"/>
			<path class="st2" d="M117.4,148.6V8.6h-10.7v97.3L117.4,148.6z"/>
			<path class="st2" d="M98.7,107.4l-23.1,37.8L81.8,8.6h16.8V107.4z"/>
			<path class="st2" d="M101.8,355.1l19,44.1l3.2,10.9h8.1v-17.3l-2.2-6.2h-9.1v-93.6L101.8,355.1z"/>
			<path class="st2" d="M83.1,586.8l15.3-42.9V420.3l-15.3,49.2V586.8z"/>
			<path class="st2" d="M117.8,637.5V523.4l-13.3-48.1v144L117.8,637.5z"/>
			<path class="st2" d="M274.5,473.1l-15.1,43.2l15.1-110.7V473.1z"/>
		</g>
		<g class="st1">
			<path class="st2" d="M377.9,0.6h-3.7v122.1h11.9v-12.9l-8.2-25V0.6z"/>
			<path class="st2" d="M357,54l8.9,27.2v68.7H363V84.4L357,54z"/>
			<path class="st2" d="M352.1,483.2v140.1h-10.7V526L352.1,483.2z"/>
			<path class="st2" d="M322.8,326.5l-23.1-37.8l6.3,136.6h16.8V326.5z"/>
			<path class="st2" d="M337.5,311.5l19-44.1l3.2-10.9h8.1v17.3l-2.2,6.2h-9.1v93.6L337.5,311.5z"/>
			<path class="st2" d="M318.8,79.8l15.3,42.9v123.6l-15.3-49.2V79.8z"/>
			<path class="st2" d="M353.4,29.1v114.2l-13.3,48.1v-144L353.4,29.1z"/>
		</g>
	</g>
</g>
</svg>
